svg/u1f5fc.svg

<svg viewBox="0 0 128 128" xmlns="http://www.w3.org/2000/svg">
  <path d="M66.75,58.39l-0.5-32.18c0,0-0.64-20.15-0.64-21.75s-0.32-2.99-1.2-3.07 c-0.88-0.08-1.75,0.58-1.83,2.75c-0.08,2.17-0.5,21.44-0.5,21.44s-2.69-0.02-2.74,0.37c-0.11,0.8-0.63,17-1.19,23.1 c-0.56,6.1-2.87,21.75-5.76,29.39c-1.44,3.8-4.7,11.51-7.89,16.97c-3.21,5.51-7.4,11.35-9.91,14.86c-5,6.99-7.88,9.48-7.06,10.27 c0.38,0.37,10.36,0.17,10.36,0.17s6.39-8.84,7.94-11.13c2.09-3.09,4.67-5.07,7.89-4.57c2.22,0.35,4.08,1.93,4.54,5.52 c0.61,4.66,0.79,12.46,1.36,12.9c0.87,0.69,6.99,0.68,6.99,0.68L66.75,58.39z M59.86,101.01c-0.99,0.46-3.19-0.87-5.45-1.16 c-2.26-0.29-3.94,0.64-5.1-0.46s0.46-4.06,1.91-6.84c1.45-2.78,4.58-7.88,6.2-7.53c1.73,0.37,2.32,4.87,2.84,8.69 C60.56,95.89,60.84,100.54,59.86,101.01z M57.83,82.64c-0.52-0.06-2.07-3.9-1.62-4.35c0.46-0.46,4.29-0.06,4.52,0.46 S58.35,82.7,57.83,82.64z M58.93,75.68c-1.51-0.06-2.13-0.99-2.03-1.85c0.17-1.45,1.17-1.86,2.38-1.62 c1.27,0.25,1.63,0.99,1.68,1.85C61.02,74.99,60.44,75.74,58.93,75.68z" fill="#EE3E23"/>
  <path d="M52.25,89.42l6.49,12.64l2.43-1.62l-7.62-14.59C53.56,85.85,52.76,88.4,52.25,89.42z" fill="#EE3E23"/>
  <polygon points="59.97,87.79 47.86,99.27 49.83,100.95 61.02,90.81 " fill="#EE3E23"/>
  <path d="M64.32,28.4l-5.11,0.1c0,0-0.15,3.19-0.21,4.24c-0.06,1.04-0.13,3.72-0.13,3.72h6.03L64.32,28.4z" fill="#E3E1DF"/>
  <polygon points="62.25,16.71 66.02,16.71 65.73,7.78 62.43,7.78 " fill="#C9C7CA"/>
  <path d="M64.32,45.84l-5.94-0.11c0,0-0.09,1.96-0.32,4.16c-0.17,1.64-0.58,4.35-0.58,4.35l8,0.06L64.32,45.84 z" fill="#E3E1DF"/>
  <path d="M64.85,62.93c0,0-13.69,0.07-14.27,0.07c-0.58,0-1.66,0.84-0.35,2.73c0.93,1.34,3.72,4.79,4.24,4.92 s10.66,0,10.66,0L64.85,62.93z" fill="#C9C7CA"/>
  <path d="M101.59,118.7c-0.44-0.53-5.14-6.25-9.2-12.11s-8.02-12.01-10.27-16.34 c-4.51-8.67-6-13.92-8.41-23.21c-1.24-4.78-2.66-10.12-3.76-24.98c-1.02-13.8-0.4-16.23-0.96-16.28c-0.46-0.05-4.97-0.15-4.97-0.15 s0.17,17.55,0.31,32.92c0.14,15.05,0.81,65.54,0.81,65.54s0.73,0.03,1.7,0.03c1.76-0.01,4.31-0.09,4.62-0.38 c0.54-0.52,0.58-10.43,0.85-14.21c0.3-4.22,4.85-7.07,9.44-2.8c5.13,4.78,10.22,13.93,10.84,14.38c0.78,0.56,8.75,0.09,9.73,0.09 C103.27,121.17,102.47,119.76,101.59,118.7z M69.41,72.05c1.18-0.33,2.49,0.19,2.71,1.11c0.21,0.92,0.05,2.12-1.69,2.32 c-1.41,0.16-2.16-0.24-2.34-1.39C67.92,73,68.56,72.29,69.41,72.05z M68.64,78.8c0.29-0.7,3.76-1.31,4.21-0.66 c0.45,0.65-0.39,4.39-1.39,4.44C70.46,82.62,68.42,79.32,68.64,78.8z M80.61,99.14c-0.9,0.9-1.83,0.43-5.17,1.07 c-3.34,0.64-4.23,1.56-5.45,1.36c-1.22-0.19-1.08-2.9-0.76-7.65c0.32-4.75,1.39-8.66,2.95-8.94c2.11-0.37,4.37,4.32,5.65,6.69 S81.51,98.24,80.61,99.14z" fill="#CD3001"/>
  <polygon points="76.53,86.34 68.69,102.47 72.1,102.53 78.58,88.53 " fill="#CD3001"/>
  <polygon points="69.27,86.92 82.7,100.02 79.29,100.54 67.98,89.87 " fill="#CD3001"/>
  <polygon points="64.04,28.41 69.29,28.42 69.58,36.36 64.07,36.48 " fill="#C9C7CA"/>
  <path d="M64.2,45.81l6.06,0.06c0,0,0.3,2.98,0.4,3.97c0.19,1.82,0.51,4.4,0.51,4.4l-6.92,0.04L64.2,45.81z" fill="#C9C7CA"/>
  <path d="M64.37,62.93c0,0,11.66-0.03,12.8-0.03c1.17,0,1.68,0.69,1.3,1.56c-0.38,0.86-3.38,5.18-3.83,5.94 c-0.13,0.22-10.19,0.25-10.19,0.25L64.37,62.93z" fill="#AFB1B0"/>
</svg>

<svg viewBox="0 0 128 128" xmlns="http://www.w3.org/2000/svg">
  <defs/>
  <path d="M66.75,58.39 L66.25,26.21 C66.25,26.21 65.61,6.06 65.61,4.46 C65.61,2.86 65.29,1.47 64.41,1.39 C63.53,1.31 62.66,1.97 62.58,4.14 C62.5,6.31 62.08,25.58 62.08,25.58 C62.08,25.58 59.39,25.56 59.34,25.95 C59.23,26.75 58.71,42.95 58.15,49.05 C57.59,55.15 55.28,70.8 52.39,78.44 C50.95,82.24 47.69,89.95 44.5,95.41 C41.29,100.92 37.1,106.76 34.59,110.27 C29.59,117.26 26.71,119.75 27.53,120.54 C27.91,120.91 37.89,120.71 37.89,120.71 C37.89,120.71 44.28,111.87 45.83,109.58 C47.92,106.49 50.5,104.51 53.72,105.01 C55.94,105.36 57.8,106.94 58.26,110.53 C58.87,115.19 59.05,122.99 59.62,123.43 C60.49,124.12 66.61,124.11 66.61,124.11 L66.75,58.39 Z M59.86,101.01 C58.87,101.47 56.67,100.14 54.41,99.85 C52.15,99.56 50.47,100.49 49.31,99.39 C48.15,98.29 49.77,95.33 51.22,92.55 C52.67,89.77 55.8,84.67 57.42,85.02 C59.15,85.39 59.74,89.89 60.26,93.71 C60.56,95.89 60.84,100.54 59.86,101.01 Z M57.83,82.64 C57.31,82.58 55.76,78.74 56.21,78.29 C56.67,77.83 60.5,78.23 60.73,78.75 C60.96,79.27 58.35,82.7 57.83,82.64 Z M58.93,75.68 C57.42,75.62 56.8,74.69 56.9,73.83 C57.07,72.38 58.07,71.97 59.28,72.21 C60.55,72.46 60.91,73.2 60.96,74.06 C61.02,74.99 60.44,75.74 58.93,75.68 Z" fill="#EE3E23"/>
  <path d="M52.25,89.42 L58.74,102.06 L61.17,100.44 L53.55,85.85 C53.56,85.85 52.76,88.4 52.25,89.42 Z" fill="#EE3E23"/>
  <path d="M59.97,87.79 L47.86,99.27 L49.83,100.95 L61.02,90.81 Z" fill="#EE3E23"/>
  <path d="M64.32,28.4 L59.21,28.5 C59.21,28.5 59.06,31.69 59,32.74 C58.94,33.78 58.87,36.46 58.87,36.46 L64.9,36.46 L64.32,28.4 Z" fill="#E3E1DF"/>
  <path d="M62.25,16.71 L66.02,16.71 L65.73,7.78 L62.43,7.78 Z" fill="#C9C7CA"/>
  <path d="M64.32,45.84 L58.38,45.73 C58.38,45.73 58.29,47.69 58.06,49.89 C57.89,51.53 57.48,54.24 57.48,54.24 L65.48,54.3 L64.32,45.84 Z" fill="#E3E1DF"/>
  <path d="M64.85,62.93 C64.85,62.93 51.16,63 50.58,63 C50,63 48.92,63.84 50.23,65.73 C51.16,67.07 53.95,70.52 54.47,70.65 C54.99,70.78 65.13,70.65 65.13,70.65 L64.85,62.93 Z" fill="#C9C7CA"/>
  <path d="M101.59,118.7 C101.15,118.17 96.45,112.45 92.39,106.59 C88.33,100.73 84.37,94.58 82.12,90.25 C77.61,81.58 76.12,76.33 73.71,67.04 C72.47,62.26 71.05,56.92 69.95,42.06 C68.93,28.26 69.55,25.83 68.99,25.78 C68.53,25.73 64.02,25.63 64.02,25.63 C64.02,25.63 64.19,43.18 64.33,58.55 C64.47,73.6 65.14,124.09 65.14,124.09 C65.14,124.09 65.87,124.12 66.84,124.12 C68.6,124.11 71.15,124.03 71.46,123.74 C72,123.22 72.04,113.31 72.31,109.53 C72.61,105.31 77.16,102.46 81.75,106.73 C86.88,111.51 91.97,120.66 92.59,121.11 C93.37,121.67 101.34,121.2 102.32,121.2 C103.27,121.17 102.47,119.76 101.59,118.7 Z M69.41,72.05 C70.59,71.72 71.9,72.24 72.12,73.16 C72.33,74.08 72.17,75.28 70.43,75.48 C69.02,75.64 68.27,75.24 68.09,74.09 C67.92,73 68.56,72.29 69.41,72.05 Z M68.64,78.8 C68.93,78.1 72.4,77.49 72.85,78.14 C73.3,78.79 72.46,82.53 71.46,82.58 C70.46,82.62 68.42,79.32 68.64,78.8 Z M80.61,99.14 C79.71,100.04 78.78,99.57 75.44,100.21 C72.1,100.85 71.21,101.77 69.99,101.57 C68.77,101.38 68.91,98.67 69.23,93.92 C69.55,89.17 70.62,85.26 72.18,84.98 C74.29,84.61 76.55,89.3 77.83,91.67 C79.11,94.04 81.51,98.24 80.61,99.14 Z" fill="#CD3001"/>
  <path d="M76.53,86.34 L68.69,102.47 L72.1,102.53 L78.58,88.53 Z" fill="#CD3001"/>
  <path d="M69.27,86.92 L82.7,100.02 L79.29,100.54 L67.98,89.87 Z" fill="#CD3001"/>
  <path d="M64.04,28.41 L69.29,28.42 L69.58,36.36 L64.07,36.48 Z" fill="#C9C7CA"/>
  <path d="M64.2,45.81 L70.26,45.87 C70.26,45.87 70.56,48.85 70.66,49.84 C70.85,51.66 71.17,54.24 71.17,54.24 L64.25,54.28 L64.2,45.81 Z" fill="#C9C7CA"/>
  <path d="M64.37,62.93 C64.37,62.93 76.03,62.9 77.17,62.9 C78.34,62.9 78.85,63.59 78.47,64.46 C78.09,65.32 75.09,69.64 74.64,70.4 C74.51,70.62 64.45,70.65 64.45,70.65 L64.37,62.93 Z" fill="#AFB1B0"/>
</svg>
